X:1
T:Title
%%score { ( 1 4 ) | ( 2 3 ) }
L:1/8
Q:1/4=172
M:4/2
K:F
V:1 treble nm="Grand Piano"
V:4 treble 
V:2 bass 
V:3 bass 
V:1
 C4 C4 [DF]4 [FA]4 | [FG]4 [EA]4 [FB]4 [Gc]4 | [CA]4 G2 F2 [DG]4 [Cc]4 | [CD]4 [=B,F]4 [CE]8 | %4
 [CA]4 [Dd]4 [Gd]4 [Gc]4 | F4 [FB]4 [_EB]4 [EA]4 | D8 E4- [CE]4 | [CF]16 | [DF]8 [CF]8 |] %9
V:2
 [F,A,]4 [E,G,]4 [D,A,]4 [C,C]4 | [B,,D]4 [C,C]4 B,2 A,2 [E,G,]4 | %2
 [F,A,]4 [F,A,]4 [E,G,]4 A,,2 G,,2 | [F,,A,]4 [G,,G,]4 [C,G,]8 | [F,A,]4 [F,A,]4 [E,G,]4 [A,,C]4 | %5
 [D,C]4 [D,B,]4 [C,_E,]4 [F,,A,]4 | A,4 z4 G,8 | [F,,A,]16 | [B,,B,]8 [F,,A,]8 |] %9
V:3
 x16 | z8 D,4 z4 | z8 z4 E,4 | x16 | x16 | x16 | B,,4- [B,,G,]4 C,6- [C,B,]2 | x16 | x16 |] %9
V:4
 x16 | x16 | z4 D4 z8 | x16 | x16 | x16 | z8 D4 z4 | x16 | x16 |] %9

